x-pack/solutions/search/plugins/enterprise_search/public/assets/client_libraries/php.svg

<svg width="24" height="24" viewBox="0 0 24 24" fill="none" xmlns="http://www.w3.org/2000/svg">
<path d="M12 6.19482C5.6738 6.19482 0.544922 8.79395 0.544922 12C0.544922 15.2061 5.6738 17.8052 12 17.8052C18.3263 17.8052 23.4552 15.2061 23.4552 12C23.4552 8.79395 18.3263 6.19482 12 6.19482ZM9.01936 13.131C8.74599 13.3868 8.44242 13.4923 8.10811 13.6011C7.7738 13.71 7.34836 13.6875 6.83105 13.6875H5.65861L5.33367 15.5625H3.96473L5.1863 9.18751H7.8188C8.6108 9.18751 9.18849 9.41532 9.55167 9.83101C9.91486 10.2467 10.024 10.8368 9.87924 11.5817C9.81942 11.8886 9.71874 12.174 9.57661 12.4283C9.42933 12.6906 9.24123 12.9278 9.01936 13.131ZM13.0152 13.6875L13.5554 10.9838C13.6169 10.6673 13.5944 10.4321 13.4877 10.3172C13.3808 10.2021 13.1535 10.125 12.8061 10.125H11.7205L11.0209 13.6875H9.66267L10.8842 7.50001H12.2425L11.9177 9.18751H13.1277C13.8891 9.18751 14.4141 9.34032 14.703 9.60582C14.992 9.87132 15.0786 10.2351 14.9631 10.8298L14.3948 13.6875H13.0152ZM20.5637 11.5916C20.5041 11.8986 20.4032 12.1791 20.2613 12.4331C20.1192 12.6876 19.9335 12.9203 19.7042 13.131C19.4309 13.3868 19.1271 13.4923 18.793 13.6011C18.4589 13.71 18.033 13.6875 17.5157 13.6875H16.3433L16.0185 15.5625H14.6496L15.871 9.18751H18.5037C19.2957 9.18751 19.8734 9.41532 20.2364 9.83101C20.5992 10.2467 20.7085 10.8469 20.5637 11.5916ZM17.9849 10.125H17.0472L16.5359 12.75H17.3687C17.9204 12.75 18.3317 12.6956 18.6017 12.4875C18.8721 12.2798 19.0542 11.9573 19.1489 11.4711C19.2396 11.004 19.1984 10.6397 19.0251 10.4477C18.8517 10.2557 18.505 10.125 17.9849 10.125ZM7.30017 10.125H6.3623L5.85098 12.75H6.68367C7.23549 12.75 7.64667 12.6956 7.91686 12.4875C8.18705 12.2798 8.3693 11.9573 8.4638 11.4711C8.55455 11.004 8.5133 10.6397 8.34005 10.4477C8.1668 10.2557 7.8203 10.125 7.30017 10.125Z" fill="#6181B6"/>
</svg>

<svg xmlns="http://www.w3.org/2000/svg" width="24" height="24" fill="none"><path fill="#6181B6" d="M12 6.195C5.674 6.195.545 8.794.545 12S5.674 17.805 12 17.805 23.455 15.206 23.455 12 18.326 6.195 12 6.195M9.02 13.13c-.274.256-.578.361-.912.47s-.76.086-1.277.086H5.66l-.325 1.876h-1.37l1.222-6.375H7.82c.792 0 1.37.227 1.733.643s.472 1.006.327 1.75q-.09.464-.302.847-.223.396-.558.703m3.995.556.54-2.703c.062-.317.04-.552-.067-.667s-.335-.192-.682-.192h-1.085l-.7 3.563H9.663L10.884 7.5h1.358l-.324 1.688h1.21c.761 0 1.286.152 1.575.418.289.265.376.63.26 1.224l-.568 2.858zm7.549-2.095q-.09.46-.303.841a2.8 2.8 0 0 1-.557.698c-.273.256-.577.361-.911.47s-.76.086-1.277.086h-1.173l-.325 1.876H14.65l1.221-6.375h2.633c.792 0 1.37.227 1.732.643.363.416.473 1.016.328 1.76m-2.58-1.467h-.937l-.511 2.625h.833c.551 0 .963-.054 1.233-.262s.452-.53.547-1.017c.09-.467.05-.831-.124-1.023-.173-.192-.52-.323-1.04-.323m-10.684 0h-.938l-.511 2.625h.833c.551 0 .963-.054 1.233-.262s.452-.53.547-1.017c.09-.467.05-.831-.124-1.023-.173-.192-.52-.323-1.04-.323"/></svg>
